icons/1_Primary/Tokopedia.svg

<svg xmlns="http://www.w3.org/2000/svg" width="1024" height="1024" fill="none">
   <g clip-path="url(#a)">
      <path fill="#98DC9A" d="M512 1024c282.77 0 512-229.23 512-512S794.77 0 512 0 0 229.23 0 512s229.23 512 512 512Z"/>
      <path fill="#fff" d="M620.4 326.4c-5.6-56.4-51.8-100.3-108-100.3-56.1 0-102.3 43.5-108.7 99.6l29.1 2.3c5.2-40.5 38.6-71.8 79.4-71.8 40.8 0 74.6 31.8 78.9 72.8l29.3-2.6Zm94.3-6.5c-32 0-63.9-1.7-95.8 1.1l-29.1 2.6c-25.9 2.3-54.3 8.9-77.6 20.9-24.8-12.9-50.2-19.8-77.9-22l-29.1-2.3c-32-2.6-63.8-.4-95.8-.4h-17.5v418.3h294.4c80.4 0 146.1-67.7 146.1-150.5V319.9h-17.7ZM331.4 496.1c0-48.6 38.3-88.1 85.5-88.1s85.5 39.4 85.5 88.1c0 48.6-38.3 88.1-85.5 88.1-47.3 0-85.5-39.5-85.5-88.1ZM512 632.9c-12.7-13.9-25.4-27.7-38.1-41.5 8-14.2 23.1-21.3 38.1-21.2 15 0 30.1 7 38.1 21.2-12.7 13.8-25.4 27.6-38.1 41.5Zm95.1-48.7c-47.2 0-85.5-39.4-85.5-88.1 0-48.6 38.3-88.1 85.5-88.1s85.5 39.4 85.5 88.1c0 48.6-38.3 88.1-85.5 88.1ZM427.6 441.4c30.5 0 55.2 25.5 55.2 56.8 0 31.4-24.7 56.9-55.2 56.9-30.5 0-55.2-25.5-55.2-56.9 0-10.5 2.8-20.3 7.6-28.7 3.9 10 13.5 17.1 24.7 17.1 14.7 0 26.6-12.2 26.6-27.4 0-6.8-2.4-13-6.4-17.8h2.7Zm168.8 0c30.5 0 55.2 25.5 55.2 56.8 0 31.4-24.7 56.9-55.2 56.9-30.5 0-55.2-25.5-55.2-56.9 0-10.5 2.7-20.3 7.5-28.7 4 10 13.5 17.1 24.7 17.1 14.7 0 26.6-12.2 26.6-27.4 0-6.8-2.4-13-6.4-17.8h2.8Z"/>
   </g>
   <defs>
      <clipPath id="a">
         <path fill="#fff" d="M0 0h1024v1024H0z"/>
      </clipPath>
   </defs>
</svg>

<svg width="1024" height="1024" viewBox="0 0 1024 1024" fill="none" xmlns="http://www.w3.org/2000/svg">
<g clip-path="url(#clip0_2_3675)">
<path d="M512 1024C794.77 1024 1024 794.77 1024 512C1024 229.23 794.77 0 512 0C229.23 0 0 229.23 0 512C0 794.77 229.23 1024 512 1024Z" fill="#98DC9A"/>
<path d="M620.4 326.4C614.8 270 568.6 226.1 512.4 226.1C456.3 226.1 410.1 269.6 403.7 325.7L432.8 328C438 287.5 471.4 256.2 512.2 256.2C553 256.2 586.8 288 591.1 329L620.4 326.4ZM714.7 319.9C682.7 319.9 650.8 318.2 618.9 321L589.8 323.6C563.9 325.9 535.5 332.5 512.2 344.5C487.4 331.6 462 324.7 434.3 322.5L405.2 320.2C373.2 317.6 341.4 319.8 309.4 319.8H291.9V738.1H586.3C666.7 738.1 732.4 670.4 732.4 587.6V319.9H714.7ZM331.4 496.1C331.4 447.5 369.7 408 416.9 408C464.1 408 502.4 447.4 502.4 496.1C502.4 544.7 464.1 584.2 416.9 584.2C369.6 584.2 331.4 544.7 331.4 496.1ZM512 632.9C499.3 619 486.6 605.2 473.9 591.4C481.9 577.2 497 570.1 512 570.2C527 570.2 542.1 577.2 550.1 591.4C537.4 605.2 524.7 619 512 632.9ZM607.1 584.2C559.9 584.2 521.6 544.8 521.6 496.1C521.6 447.5 559.9 408 607.1 408C654.3 408 692.6 447.4 692.6 496.1C692.6 544.7 654.3 584.2 607.1 584.2ZM427.6 441.4C458.1 441.4 482.8 466.9 482.8 498.2C482.8 529.6 458.1 555.1 427.6 555.1C397.1 555.1 372.4 529.6 372.4 498.2C372.4 487.7 375.2 477.9 380 469.5C383.9 479.5 393.5 486.6 404.7 486.6C419.4 486.6 431.3 474.4 431.3 459.2C431.3 452.4 428.9 446.2 424.9 441.4H427.6ZM596.4 441.4C626.9 441.4 651.6 466.9 651.6 498.2C651.6 529.6 626.9 555.1 596.4 555.1C565.9 555.1 541.2 529.6 541.2 498.2C541.2 487.7 543.9 477.9 548.7 469.5C552.7 479.5 562.2 486.6 573.4 486.6C588.1 486.6 600 474.4 600 459.2C600 452.4 597.6 446.2 593.6 441.4H596.4Z" fill="white"/>
</g>
<defs>
<clipPath id="clip0_2_3675">
<rect width="1024" height="1024" fill="white"/>
</clipPath>
</defs>
</svg>
